X:44
T:Errigal Braes + (r)
B:NFID.236c
044err_b
S:PT
N:The source shows measure 4 and 8 as 2/4 (cAGG and A,G,=CE).
I have added a version with all measures in 4/4 (the effect
on dancers of a 2/4 measure in a reel can only be imagined).
[BB]
L:1/8
M:C
R:reel
Q:360
K:D
Addd d2DD|Adeg fdec|BcBA G2AB|[M:2/4] cA GG|
[M:C]Addd d2dd|Adeg fdec|BcBA G2AB|cAGE FD (3DDD||
FDAD FD (3DDD|ED=CE FD (3DDD|FDAD ED=CG,|A,G,=CE FD (3DDD|
FDAD FD (3DDD|ED=CE FD (3DDD|FDAD ED=CG,|[M:2/4] A,G, =CE||
= = =
P:all 4/4 version
[M:C] Addd d2DD|Adeg fdec|BcBA G2AB|c3A cBAG|
Addd d2dd|Adeg fdec|BcBA G2AB|cAGE FD (3DDD||
FDAD FD (3DDD|ED=CE FD (3DDD|FDAD ED=CG,|A,G,=CE FD (3DDD|
FDAD FD (3DDD|ED=CE FD (3DDD|FDAD ED=CG,|A,3B, =C2E2||

%%%

